src/images/svg/payment-methods/payment-litecoin.svg

<svg width="128" height="80" viewBox="0 0 128 80" fill="none" xmlns="http://www.w3.org/2000/svg">
<path d="M28.0751 26C25.2907 26 22.5689 26.8257 20.2538 28.3726C17.9386 29.9195 16.1342 32.1182 15.0687 34.6906C14.0032 37.263 13.7244 40.0936 14.2676 42.8245C14.8108 45.5553 16.1516 48.0638 18.1204 50.0326C20.0893 52.0015 22.5977 53.3423 25.3286 53.8855C28.0594 54.4287 30.8901 54.1499 33.4625 53.0843C36.0349 52.0188 38.2336 50.2144 39.7805 47.8993C41.3274 45.5842 42.153 42.8623 42.153 40.078C42.153 38.2292 41.7889 36.3986 41.0814 34.6906C40.3739 32.9826 39.337 31.4306 38.0297 30.1233C36.7224 28.8161 35.1705 27.7791 33.4625 27.0716C31.7544 26.3641 29.9238 26 28.0751 26V26ZM28.3032 40.5411L26.8389 45.4824H34.6713C34.7336 45.4825 34.795 45.4972 34.8507 45.5251C34.9064 45.5531 34.9548 45.5936 34.9921 45.6435C35.0294 45.6933 35.0546 45.7512 35.0657 45.8125C35.0769 45.8738 35.0736 45.9368 35.0562 45.9966L34.3751 48.3429C34.3426 48.455 34.2745 48.5535 34.1811 48.6235C34.0878 48.6936 33.9742 48.7313 33.8575 48.7311H21.8942L23.917 41.8999L21.6797 42.581L22.1735 40.9838L24.4142 40.3027L27.2544 30.7063C27.2856 30.5938 27.3527 30.4947 27.4456 30.424C27.5384 30.3533 27.6519 30.3149 27.7686 30.3147H30.7994C30.8616 30.3144 30.923 30.3287 30.9787 30.3562C31.0345 30.3837 31.0831 30.4238 31.1208 30.4734C31.1584 30.5229 31.184 30.5804 31.1956 30.6415C31.2072 30.7026 31.2045 30.7656 31.1876 30.8255L28.8038 38.9406L31.0412 38.2595L30.561 39.8839L28.3032 40.5411Z" fill="#A5A8A9"/>
<path d="M54.8319 30.159C55.0433 30.1381 55.2561 30.1804 55.4434 30.2805C55.6935 30.4142 55.8805 30.6415 55.9635 30.9127C56.0464 31.184 56.0186 31.477 55.8861 31.7278C55.7868 31.9155 55.6341 32.0696 55.4472 32.1705C55.2603 32.2714 55.0477 32.3145 54.8363 32.2944C54.6248 32.2743 54.4241 32.192 54.2596 32.0577C54.095 31.9234 53.974 31.7434 53.9119 31.5403C53.8498 31.3372 53.8493 31.1202 53.9106 30.9169C53.9719 30.7136 54.0922 30.533 54.2562 30.3981C54.4202 30.2632 54.6206 30.18 54.8319 30.159Z" fill="#4D4D4E"/>
<path d="M49.4159 30.2737H50.2945C50.4648 30.2737 50.5669 30.3486 50.5397 30.5461L48.2546 48.4756C48.255 48.5134 48.2472 48.5509 48.2318 48.5854C48.2163 48.62 48.1936 48.6507 48.1651 48.6756C48.1366 48.7005 48.1031 48.719 48.0668 48.7297C48.0306 48.7405 47.9924 48.7432 47.955 48.7378H47.0832C46.9027 48.7378 46.8448 48.6459 46.8652 48.4756L49.1196 30.5393C49.1214 30.5023 49.1304 30.466 49.1463 30.4326C49.1622 30.3991 49.1846 30.3692 49.2121 30.3445C49.2397 30.3197 49.2719 30.3008 49.3069 30.2886C49.3419 30.2764 49.3789 30.2714 49.4159 30.2737Z" fill="#4D4D4E"/>
<path d="M53.9962 35.4431H54.8646C55.0553 35.4431 55.1132 35.535 55.1064 35.7121L53.5024 48.4756C53.5015 48.5146 53.4922 48.5529 53.4752 48.5879C53.4582 48.623 53.4338 48.654 53.4038 48.6789C53.3738 48.7037 53.3388 48.7218 53.3012 48.732C53.2636 48.7422 53.2242 48.7442 53.1857 48.7378H52.3139C52.1505 48.7378 52.0483 48.6493 52.0688 48.4756L53.6965 35.7053C53.6978 35.668 53.7066 35.6313 53.7226 35.5976C53.7386 35.5638 53.7613 35.5337 53.7894 35.5091C53.8175 35.4845 53.8504 35.466 53.886 35.4546C53.9215 35.4433 53.9591 35.4393 53.9962 35.4431Z" fill="#4D4D4E"/>
<path fill-rule="evenodd" clip-rule="evenodd" d="M93.1244 35.232C91.9968 35.2061 90.894 35.5655 89.9981 36.2509C89.1023 36.9363 88.4669 37.9066 88.1968 39.0017C87.9542 40.0183 87.7734 41.0486 87.6553 42.0871C87.5156 43.11 87.4337 44.1401 87.4102 45.1724C87.3987 45.6762 87.4889 46.1771 87.6756 46.6453C87.8623 47.1134 88.1415 47.539 88.4965 47.8967C89.2048 48.5778 90.1753 48.9183 91.4081 48.9183C92.5372 48.9439 93.6412 48.5835 94.5377 47.8967C95.4216 47.2173 96.0465 46.256 96.3085 45.1724C96.5544 44.1565 96.7353 43.126 96.85 42.0871C96.9884 41.0548 97.0691 40.0157 97.0917 38.9745C97.1147 38.4705 97.031 37.9673 96.8461 37.4979C96.6613 37.0284 96.3794 36.6033 96.019 36.2502C95.2265 35.5419 94.1859 35.1759 93.1244 35.232ZM95.5866 40.8475C95.5048 41.4979 95.4537 41.9134 95.4367 42.0871C95.2733 43.4049 95.1268 44.3482 95.0008 44.9101C94.8312 45.7145 94.3899 46.436 93.751 46.9534C93.1276 47.4585 92.3466 47.7285 91.5443 47.7162C91.1792 47.7405 90.8131 47.6868 90.4703 47.5588C90.1274 47.4308 89.8158 47.2314 89.5559 46.9738C89.296 46.7161 89.0939 46.4062 88.9629 46.0645C88.8319 45.7228 88.7751 45.3572 88.7962 44.9919C88.8039 44.445 88.8448 43.8992 88.9188 43.3573C89.0005 42.7068 89.0516 42.2948 89.0686 42.1177C89.232 40.8543 89.3785 39.911 89.5045 39.298C89.6754 38.4941 90.1164 37.773 90.7543 37.2548C91.3785 36.7512 92.159 36.4814 92.961 36.492C93.3261 36.4677 93.6922 36.5213 94.035 36.6493C94.3779 36.7773 94.6895 36.9768 94.9494 37.2344C95.2093 37.492 95.4114 37.8019 95.5424 38.1436C95.6734 38.4853 95.7302 38.851 95.7091 39.2163C95.7013 39.762 95.6603 40.3067 95.5866 40.8475Z" fill="#4D4D4E"/>
<path d="M101.216 35.4431H102.084C102.254 35.4431 102.326 35.535 102.302 35.7053L100.698 48.4756C100.696 48.5128 100.687 48.5492 100.671 48.5827C100.655 48.6162 100.632 48.6461 100.604 48.6706C100.576 48.6951 100.544 48.7137 100.508 48.7253C100.473 48.7368 100.435 48.7411 100.398 48.7378H99.5266C99.3632 48.7378 99.2576 48.6595 99.2814 48.4756L100.916 35.7053C100.921 35.6309 100.956 35.5616 101.012 35.5125C101.068 35.4633 101.141 35.4384 101.216 35.4431Z" fill="#4D4D4E"/>
<path d="M113.097 36.1957C112.498 35.5691 111.657 35.2592 110.567 35.2592C109.892 35.252 109.224 35.3915 108.609 35.6678C108.006 35.9433 107.482 36.3647 107.083 36.8938C107.012 36.9619 106.974 36.9449 106.974 36.8393L107.11 35.7053C107.131 35.5452 107.059 35.4431 106.892 35.4431H106.024C105.987 35.4398 105.95 35.4441 105.914 35.4557C105.879 35.4672 105.846 35.4858 105.818 35.5103C105.79 35.5348 105.767 35.5647 105.751 35.5982C105.735 35.6317 105.726 35.6681 105.724 35.7053L104.12 48.4756C104.1 48.6425 104.158 48.7378 104.338 48.7378H105.21C105.247 48.7406 105.284 48.736 105.319 48.7243C105.355 48.7125 105.387 48.6939 105.415 48.6695C105.443 48.6451 105.466 48.6154 105.482 48.5821C105.498 48.5488 105.508 48.5126 105.51 48.4756L106.678 39.3253C106.844 38.5318 107.265 37.8144 107.877 37.282C108.474 36.7634 109.241 36.4843 110.032 36.4988C110.374 36.4841 110.715 36.5424 111.033 36.6699C111.351 36.7973 111.637 36.9909 111.874 37.2377C112.352 37.776 112.596 38.4811 112.556 39.1993C112.559 39.3938 112.55 39.5883 112.528 39.7816L111.415 48.4756C111.407 48.5073 111.406 48.5405 111.414 48.5724C111.421 48.6043 111.435 48.6341 111.456 48.6595C111.482 48.6869 111.514 48.7081 111.549 48.7217C111.584 48.7352 111.622 48.7407 111.66 48.7378H112.528C112.565 48.7411 112.603 48.7368 112.638 48.7253C112.673 48.7137 112.706 48.6951 112.734 48.6706C112.762 48.6461 112.785 48.6162 112.801 48.5827C112.817 48.5492 112.826 48.5128 112.828 48.4756L113.945 39.5636C113.982 39.2231 113.999 38.9473 113.999 38.7736C114.027 38.3056 113.961 37.8369 113.806 37.3944C113.651 36.952 113.41 36.5446 113.097 36.1957Z" fill="#4D4D4E"/>
<path d="M102.707 30.2805C102.519 30.182 102.306 30.1415 102.095 30.1641C101.884 30.1867 101.685 30.2714 101.522 30.4074C101.359 30.5434 101.24 30.7247 101.18 30.9283C101.12 31.1319 101.122 31.3486 101.186 31.5511C101.249 31.7536 101.371 31.9328 101.536 32.0659C101.701 32.1991 101.902 32.2803 102.114 32.2992C102.325 32.3181 102.537 32.2739 102.724 32.1722C102.91 32.0705 103.062 31.9158 103.16 31.7278C103.292 31.4758 103.318 31.1818 103.233 30.9104C103.148 30.639 102.959 30.4124 102.707 30.2805Z" fill="#4D4D4E"/>
<path d="M78.5899 36.274C79.4916 35.575 80.6061 35.2071 81.7467 35.232C82.8075 35.1705 83.8495 35.5317 84.6447 36.2365C85.0062 36.5889 85.2891 37.0139 85.4745 37.4835C85.66 37.953 85.7439 38.4565 85.7208 38.9609V39.2708C85.7208 39.2916 85.7167 39.3123 85.7086 39.3315C85.7005 39.3507 85.6886 39.3682 85.6737 39.3828C85.6588 39.3974 85.6412 39.4088 85.6218 39.4165C85.6024 39.4242 85.5816 39.4279 85.5608 39.4274H84.5391C84.5122 39.4274 84.4855 39.422 84.4606 39.4115C84.4358 39.401 84.4134 39.3856 84.3946 39.3662C84.3759 39.3468 84.3612 39.3238 84.3515 39.2987C84.3418 39.2735 84.3373 39.2466 84.3382 39.2197V39.1993C84.3594 38.8336 84.3024 38.4677 84.1713 38.1257C84.0401 37.7838 83.8376 37.4737 83.5774 37.216C83.3171 36.9583 83.005 36.759 82.6618 36.6312C82.3185 36.5034 81.952 36.4502 81.5866 36.4749C80.7857 36.4643 80.0063 36.7342 79.3833 37.2377C78.7469 37.7607 78.3103 38.4872 78.1472 39.2946C78.0178 39.9076 77.8747 40.8509 77.7113 42.1143C77.6908 42.2914 77.6296 42.8124 77.5614 43.3539C77.4875 43.8957 77.4466 44.4416 77.4388 44.9885C77.4178 45.3538 77.4746 45.7194 77.6056 46.0611C77.7366 46.4028 77.9387 46.7127 78.1986 46.9704C78.4585 47.228 78.7701 47.4274 79.113 47.5554C79.4558 47.6834 79.8219 47.7371 80.187 47.7128C80.9883 47.7257 81.7685 47.4556 82.3903 46.95C83.0301 46.4328 83.4725 45.7114 83.6435 44.9067C83.6421 44.8897 83.6421 44.8726 83.6435 44.8557C83.6528 44.8188 83.6744 44.7862 83.7048 44.7633C83.7351 44.7404 83.7724 44.7285 83.8104 44.7297H84.8831C84.9015 44.7297 84.9196 44.7339 84.9362 44.7419C84.9527 44.7499 84.9672 44.7615 84.9787 44.7759C84.9901 44.7903 84.9982 44.8071 85.0023 44.825C85.0064 44.8429 85.0064 44.8616 85.0023 44.8795C84.9784 44.9817 84.9546 45.077 84.9308 45.169C84.6722 46.2532 84.0481 47.2153 83.1634 47.8933C82.2666 48.5796 81.1628 48.9399 80.0338 48.9149C78.801 48.9149 77.8305 48.5744 77.1221 47.8933C76.7652 47.5368 76.4846 47.1115 76.2972 46.6431C76.1099 46.1748 76.0198 45.6732 76.0324 45.169C76.0586 44.1369 76.1404 43.1069 76.2776 42.0836C76.4024 41.046 76.5843 40.016 76.8225 38.9983C77.0864 37.9164 77.7094 36.956 78.5899 36.274Z" fill="#4D4D4E"/>
<path fill-rule="evenodd" clip-rule="evenodd" d="M72.9609 36.2604C72.168 35.55 71.126 35.1827 70.0629 35.2388C68.9353 35.2129 67.8325 35.5724 66.9366 36.2577C66.0408 36.9431 65.4054 37.9134 65.1353 39.0086C64.8936 40.0253 64.7128 41.0556 64.5938 42.0939C64.4355 43.1148 64.3535 44.1461 64.3486 45.1792C64.3371 45.683 64.4274 46.184 64.6141 46.6521C64.8007 47.1202 65.0799 47.5458 65.435 47.9035C66.1433 48.5846 67.1138 48.9251 68.3466 48.9251C69.4756 48.9507 70.5796 48.5903 71.4762 47.9035C72.3607 47.2247 72.9858 46.2631 73.247 45.1792C73.2708 45.0872 73.2947 44.9919 73.3185 44.8897C73.3226 44.8718 73.3226 44.8532 73.3185 44.8352C73.3144 44.8173 73.3064 44.8005 73.2949 44.7861C73.2835 44.7718 73.2689 44.7601 73.2524 44.7521C73.2358 44.7441 73.2177 44.7399 73.1993 44.7399H72.1164C72.0785 44.7393 72.0415 44.7514 72.0113 44.7742C71.9811 44.7971 71.9594 44.8293 71.9495 44.8659V44.917C71.7799 45.7214 71.3386 46.4429 70.6997 46.9602C70.0717 47.4595 69.2883 47.7222 68.4862 47.7026C68.1211 47.7268 67.755 47.6732 67.4121 47.5452C67.0693 47.4172 66.7576 47.2178 66.4978 46.9601C66.2379 46.7025 66.0358 46.3926 65.9048 46.0509C65.7738 45.7092 65.717 45.3436 65.738 44.9782C65.7443 44.5012 65.7772 44.0248 65.8368 43.5514L73.6999 41.1165C73.772 41.1008 73.8364 41.0607 73.8823 41.003C73.9282 40.9453 73.9528 40.8735 73.9519 40.7998C73.9996 40.3912 74.0302 39.6999 74.037 38.9915C74.0508 38.4873 73.9626 37.9855 73.7776 37.5162C73.5927 37.0468 73.3149 36.6197 72.9609 36.2604ZM72.651 39.9348C72.6497 39.9727 72.6365 40.0092 72.6133 40.0392C72.59 40.0691 72.558 40.091 72.5216 40.1017L66.0037 42.1143V42.0871C66.1671 40.8236 66.3136 39.8803 66.4396 39.2674C66.6104 38.4635 67.0515 37.7424 67.6893 37.2241C68.3136 36.7206 69.0941 36.4508 69.896 36.4613C70.2642 36.4466 70.6314 36.508 70.9747 36.6416C71.3181 36.7752 71.6302 36.9781 71.8916 37.2377C72.6953 38.0244 72.6987 38.8655 72.651 39.9348Z" fill="#4D4D4E"/>
<path d="M61.4859 47.2978C61.4474 47.2965 61.4092 47.3058 61.3756 47.3246C60.8171 47.5868 59.7512 47.8388 59.1859 47.362C58.7803 46.9694 58.8649 46.2689 58.9597 45.4837C58.9636 45.4516 58.9675 45.4193 58.9714 45.3869L59.9249 37.7145H62.6492C62.7268 37.7195 62.8037 37.6979 62.8672 37.6532C62.9203 37.5985 62.9496 37.5251 62.9489 37.4489L63.0238 36.8427C63.0341 36.6758 62.9625 36.5805 62.8059 36.5805H60.0816L60.5992 32.3578C60.623 32.2079 60.5822 32.0956 60.3812 32.0956H59.5401C59.5029 32.0918 59.4654 32.0957 59.4299 32.1071C59.3943 32.1185 59.3614 32.137 59.3333 32.1616C59.3052 32.1862 59.2825 32.2163 59.2665 32.25C59.2505 32.2838 59.2416 32.3205 59.2404 32.3578L58.859 35.3375L58.6956 36.6827L57.5445 46.0339C57.4015 47.2633 57.6569 48.2474 58.6547 48.7038C59.5364 49.0271 60.5065 49.0138 61.379 48.6663C61.4323 48.6455 61.479 48.6109 61.5143 48.566C61.5496 48.5211 61.5723 48.4675 61.5799 48.4109L61.6889 47.5289C61.6926 47.4905 61.6857 47.4519 61.669 47.4172C61.6523 47.3825 61.6264 47.353 61.5941 47.332C61.5618 47.3109 61.5244 47.2991 61.4859 47.2978Z" fill="#4D4D4E"/>
</svg>

<svg width="128" height="80" fill="none" xmlns="http://www.w3.org/2000/svg"><path d="M28.075 26a14.078 14.078 0 1 0 0 28.156 14.078 14.078 0 0 0 0-28.156zm.228 14.541-1.465 4.941h7.833a.401.401 0 0 1 .385.515l-.681 2.346a.538.538 0 0 1-.518.388H21.894l2.023-6.831-2.238.681.494-1.597 2.24-.681 2.84-9.597a.534.534 0 0 1 .515-.391h3.03a.402.402 0 0 1 .39.51l-2.385 8.116 2.238-.681-.48 1.624-2.258.657z" fill="#A5A8A9"/><path d="M54.832 30.16a1.072 1.072 0 1 1 .212 2.134 1.072 1.072 0 0 1-.212-2.135zM49.416 30.274h.879c.17 0 .272.075.245.272l-2.285 17.93a.263.263 0 0 1-.3.262h-.871c-.18 0-.239-.092-.218-.262L49.12 30.54a.278.278 0 0 1 .296-.266zM53.997 35.443h.868c.19 0 .249.092.242.27l-1.604 12.763a.272.272 0 0 1-.317.262h-.872c-.163 0-.265-.088-.245-.262l1.628-12.77a.272.272 0 0 1 .3-.263z" fill="#4D4D4E"/><path fill-rule="evenodd" clip-rule="evenodd" d="M93.125 35.232a4.959 4.959 0 0 0-4.928 3.77 25.898 25.898 0 0 0-.541 3.085 27.439 27.439 0 0 0-.245 3.086 3.745 3.745 0 0 0 1.086 2.724c.708.681 1.679 1.022 2.912 1.022a4.962 4.962 0 0 0 3.13-1.022 4.883 4.883 0 0 0 1.77-2.724c.246-1.016.427-2.047.541-3.086.139-1.032.22-2.071.242-3.112a3.585 3.585 0 0 0-1.073-2.725 4.025 4.025 0 0 0-2.894-1.018zm2.462 5.616c-.082.65-.133 1.066-.15 1.24-.163 1.317-.31 2.26-.436 2.822a3.579 3.579 0 0 1-1.25 2.044 3.422 3.422 0 0 1-2.206.762 2.58 2.58 0 0 1-2.748-2.724c.007-.547.048-1.093.122-1.634.082-.65.133-1.063.15-1.24.163-1.264.31-2.207.436-2.82a3.596 3.596 0 0 1 1.25-2.043 3.443 3.443 0 0 1 2.207-.763 2.58 2.58 0 0 1 2.748 2.725c-.008.545-.05 1.09-.123 1.63z" fill="#4D4D4E"/><path d="M101.216 35.443h.869c.17 0 .241.092.218.263l-1.604 12.77a.284.284 0 0 1-.027.107.278.278 0 0 1-.273.155h-.872c-.163 0-.269-.078-.245-.262l1.635-12.77a.281.281 0 0 1 .299-.263zM113.098 36.196c-.6-.627-1.441-.937-2.531-.937a4.663 4.663 0 0 0-1.958.41 3.981 3.981 0 0 0-1.525 1.225c-.072.068-.109.051-.109-.054l.136-1.135c.02-.16-.051-.262-.218-.262h-.869a.273.273 0 0 0-.272.155.267.267 0 0 0-.027.108l-1.604 12.77c-.021.167.037.262.218.262h.872a.28.28 0 0 0 .299-.262l1.168-9.15a3.729 3.729 0 0 1 1.199-2.044 3.198 3.198 0 0 1 2.156-.783 2.407 2.407 0 0 1 1.842.739c.477.538.722 1.243.681 1.962.004.194-.005.389-.027.582l-1.114 8.694a.21.21 0 0 0 .041.184.255.255 0 0 0 .204.078h.869a.28.28 0 0 0 .206-.067.271.271 0 0 0 .093-.195l1.117-8.912c.038-.34.055-.617.055-.79a3.552 3.552 0 0 0-.902-2.578zM102.708 30.28a1.073 1.073 0 1 0-.996 1.903 1.073 1.073 0 0 0 .996-1.902zM78.59 36.274a4.975 4.975 0 0 1 3.157-1.042c1.061-.061 2.103.3 2.898 1.005a3.576 3.576 0 0 1 1.076 2.724v.31a.159.159 0 0 1-.047.112.155.155 0 0 1-.113.045H84.54a.2.2 0 0 1-.201-.208v-.02a2.581 2.581 0 0 0-2.752-2.725c-.8-.01-1.58.26-2.203.763a3.579 3.579 0 0 0-1.236 2.057c-.13.613-.273 1.556-.436 2.82-.02.177-.082.698-.15 1.24a13.525 13.525 0 0 0-.123 1.634 2.583 2.583 0 0 0 2.749 2.724 3.406 3.406 0 0 0 2.203-.763 3.586 3.586 0 0 0 1.253-2.043.311.311 0 0 1 0-.051.167.167 0 0 1 .167-.126h1.073a.121.121 0 0 1 .095.046.123.123 0 0 1 .024.104c-.024.102-.048.197-.072.29a4.849 4.849 0 0 1-1.767 2.724c-.897.686-2 1.046-3.13 1.021-1.233 0-2.203-.34-2.911-1.021a3.72 3.72 0 0 1-1.09-2.725c.026-1.032.108-2.062.245-3.085.125-1.038.307-2.068.545-3.085a4.92 4.92 0 0 1 1.767-2.725z" fill="#4D4D4E"/><path fill-rule="evenodd" clip-rule="evenodd" d="M72.961 36.26a4.025 4.025 0 0 0-2.898-1.021 4.958 4.958 0 0 0-4.927 3.77 26.28 26.28 0 0 0-.542 3.085 20.779 20.779 0 0 0-.245 3.085 3.745 3.745 0 0 0 1.086 2.725c.709.68 1.68 1.021 2.912 1.021a4.962 4.962 0 0 0 3.13-1.021 4.873 4.873 0 0 0 1.77-2.725 12.6 12.6 0 0 0 .072-.289.122.122 0 0 0-.12-.15h-1.082a.17.17 0 0 0-.167.126v.051a3.579 3.579 0 0 1-1.25 2.043c-.628.5-1.411.762-2.213.743a2.581 2.581 0 0 1-2.748-2.725c.006-.477.039-.953.098-1.426l7.863-2.435a.32.32 0 0 0 .252-.317c.048-.409.079-1.1.085-1.808a3.744 3.744 0 0 0-1.076-2.731zm-.31 3.675a.18.18 0 0 1-.129.167l-6.518 2.013v-.028c.164-1.263.31-2.206.436-2.82a3.596 3.596 0 0 1 1.25-2.043 3.442 3.442 0 0 1 2.207-.762 2.68 2.68 0 0 1 1.995.776c.804.787.807 1.628.76 2.697z" fill="#4D4D4E"/><path d="M61.486 47.298a.211.211 0 0 0-.11.027c-.558.262-1.624.514-2.19.037-.405-.392-.32-1.093-.226-1.878l.012-.097.953-7.672h2.725a.34.34 0 0 0 .218-.062.29.29 0 0 0 .081-.204l.075-.606c.01-.167-.061-.262-.218-.262h-2.724l.518-4.223c.023-.15-.017-.262-.218-.262h-.841a.275.275 0 0 0-.274.154.272.272 0 0 0-.026.108l-.382 2.98-.163 1.345-1.151 9.351c-.143 1.23.112 2.214 1.11 2.67.882.323 1.852.31 2.724-.037a.32.32 0 0 0 .201-.256l.11-.882a.21.21 0 0 0-.204-.231z" fill="#4D4D4E"/></svg>
